X:21
T:Moran's Return
T:To Daunton Me
R:air
H:Also played in F
Z:id:hn-air-21
M:C|
L:1/8
Q:1/2=60
K:D
F/G/A | B2E2 E2AG | F2D2 D2de | fedc dBAF | E2EF GFGA |
B2E2 E2AG | F2D2 D2de | fedc dBAF | E2D2 D2 ||
FE | D2d>c d3e | fedc B2AF | B2e2 e3f | gfed e2de |
f2gf e2fe | dedB A2de | fedc dBAF | E2D2 D2 ||

